img/arrow-5.svg

<svg fill="none" height="14" viewBox="0 0 17 14" width="17" xmlns="http://www.w3.org/2000/svg"><path d="m15.932 7.59866c.3306-.33063.3306-.86669 0-1.19732l-5.3879-5.3879c-.3307-.330628-.86672-.330628-1.19735 0-.33062.33063-.33062.86668 0 1.19731l4.78925 4.78925-4.78925 4.7892c-.33062.3307-.33062.8667 0 1.1974.33063.3306.86665.3306 1.19735 0zm-14.14472-1.44529c-.46758 0-.846632.37905-.846632.84663s.379052.84663.846632.84663zm13.54602 0h-13.54602v1.69326h13.54602z" fill="#0080ff"/></svg>

<svg width="17" height="14" viewBox="0 0 17 14" fill="none" xmlns="http://www.w3.org/2000/svg">
<path d="M15.932 7.59866C16.2626 7.26803 16.2626 6.73197 15.932 6.40134L10.5441 1.01344C10.2134 0.682812 9.67738 0.682812 9.34675 1.01344C9.01613 1.34407 9.01613 1.88012 9.34675 2.21075L14.136 7L9.34675 11.7892C9.01613 12.1199 9.01613 12.6559 9.34675 12.9866C9.67738 13.3172 10.2134 13.3172 10.5441 12.9866L15.932 7.59866ZM1.78728 6.15337C1.3197 6.15337 0.940648 6.53242 0.940648 7C0.940648 7.46758 1.3197 7.84663 1.78728 7.84663V6.15337ZM15.3333 6.15337L1.78728 6.15337V7.84663L15.3333 7.84663V6.15337Z" fill="#0080FF"/>
</svg>
